icons/op-from-fullscreen-24.svg

<svg width="24" height="24" viewBox="0 0 24 24" fill="none" xmlns="http://www.w3.org/2000/svg">
<path d="M8.62136 9.47573L4 5.00971L5.00971 4L9.47573 8.62136V4.50485H10.7184V10.7184H4.50485V9.47573H8.62136Z" fill="black"/>
<path d="M13.2816 19.4951V13.2816H19.4951V14.5243H15.3786L20 18.9903L18.9903 20L14.5243 15.3786V19.4951H13.2816Z" fill="black"/>
</svg>

<svg xmlns="http://www.w3.org/2000/svg" width="24" height="24" viewBox="0 0 24 24"><path d="M8.621 9.476 4 5.01 5.01 4l4.466 4.621V4.505h1.242v6.213H4.505V9.476h4.116Zm4.661 10.019v-6.213h6.213v1.242h-4.116L20 18.99 18.99 20l-4.466-4.621v4.116h-1.242Z"/></svg>
